packages/icons/svg/Universe_Floor_48px.svg

<svg xmlns="http://www.w3.org/2000/svg" viewBox="0 0 48 48"><path d="M26 9v11a2 2 0 002 2h11a2 2 0 002-2V9a2 2 0 00-2-2H28a2 2 0 00-2 2zm12 10h-9v-9h9z"/><path d="M20 14H9a2 2 0 00-2 2v23a2 2 0 002 2h23a2 2 0 002-2V28a2 2 0 00-2-2H22V16a2 2 0 00-2-2zm-1 24h-9v-9h9zm12-9v9h-9v-9zm-21-3v-9h9v9z"/></svg>

<svg xmlns="http://www.w3.org/2000/svg" viewBox="0 0 48 48"><defs></defs><g id="Icon"><path  d="M26,9V20a2,2,0,0,0,2,2H39a2,2,0,0,0,2-2V9a2,2,0,0,0-2-2H28A2,2,0,0,0,26,9ZM38,19H29V10h9Z"/><path  d="M20,14H9a2,2,0,0,0-2,2V39a2,2,0,0,0,2,2H32a2,2,0,0,0,2-2V28a2,2,0,0,0-2-2H22V16A2,2,0,0,0,20,14ZM19,38H10V29h9Zm12-9v9H22V29ZM10,26V17h9v9Z"/></g></svg>
